X:1
T:James Gibb editions
T:Angels from the realms of glory - Barnby
%%score { ( 1 2 ) | ( 3 4 ) }
L:1/8
Q:1/4=90
M:2/2
K:Eb
V:1 treble nm="Midi_20"
V:2 treble 
V:3 bass 
V:4 bass 
V:1
"^Joseph Barnby\n(1838-96)""^Angels from the realms of glory""^James Montgomery\n(1771-1854)" e2 B2 e2 B2 | %1
w: |
 G2 FG F2 E2 | A2 G2 c2 B2 | f3 e d4 || e2 B2 e2 B2 | G2 FG F2 E2 | A2 G2 ^F2 G2 | B2 =A2 G4 || %8
w: |||||||
 B2 c2 B2 c2 | d2 f2 e2 F2 | B4 D4 | E4 |] %12
w: Come and wor- ship,|Wor- ship Christ, the|new- born|King.|
V:2
 G2 E>F G2 E2 | E2 D2 D2 E2 | E2 E2 E2 B2 | =A2 F2 F4 || E2 EF G2 E2 | E2 D2 D2 E2 | E2 E2 D2 D2 | %7
 G2 ^F2 G4 || F2 G2 F2 G2 | A2 A2 G2 F2 | E4 B,4 | B,4 |] %12
V:3
 B,2 G,>A, B,2 E2 | B,2 A,2 A,2 G,2 | A,2 B,2 CD E2 | C2 C2 B,4 || B,2 G,A, B,2 E2 | %5
 B,2 A,B, A,2 G,2 | %6
"^1. Angels from the realms of glory,\nWing your flight oer all the earth;\nYe who sang creations story\nNow proclaim Messiahs birth.\nRefrain: Come and worship,\nWorship Christ, the newborn King.\n\n2. Shepherds, in the field abiding,\nWatching oer your flocks by night,\nGod with man [us] is now residing;\nYonder shines the infant light:\nRefrain\n\n3. Sages, leave your contemplations,\nBrighter visions beam afar;\nSeek the great Desire of nations;\nYe have seen His natal star.\nRefrain" C2 B,2 =A,2 D2 | %7
 D2 C2 B,4 || %8
 D2 E2 D2"^4. Saints, before the altar bending,\nWatching long in hope and fear;\nSuddenly the Lord, descending,\nIn His temple shall appear.\nRefrain\n\n5. Though an Infant now we view Him,\nHe shall fill His Fathers throne,\nGather all the nations to Him;\nEvery knee shall then bow down:\nRefrain\n\n6. All creation, join in praising\nGod, the Father, Spirit, Son,\nEvermore your voices raising\nTo theternal Three in One.\nRefrain" E2 | %9
 D2 CB, B,2 C2 | G,4 A,4 | G,4 |] %12
V:4
 E,2 E,2 E,2 G,2 | B,2 B,,2 E,2 E,2 | C,2 B,,2 A,2 G,2 | F,2 =A,2 B,4 || G,2 E,2 E,2 G,2 | %5
 B,2 B,,2 C,2 C,2 | C,2 C,2 D,2 B,,2 | D,2 D,2 G,4 || A,2 G,2 A,2 G,2 | F,2 E,D, E,2 A,,2 | %10
 B,,4 B,,4 | E,4 |] %12

